X:129
T:Two or Three Strings to My Bow. JGi.129
M:6/8
L:1/8
Q:3/8=90
S:Joshua Gibbons MS,1823,Tealby,Lincs.
R:jig
O:Tealby,Lincolnshire
Z:VMP/R.Greig, 2009
K:D
A|def edc|d3A2F|GAB ABc|dAFD2A|
def edc|d3A2F|GAB ABc|”d2 in MS”d3d2:|
|:d|fga agf|f3Bcd|efe ege|d3c2A|
dcB AGF|BAG FED|FGA cec|”d2 in MS”d3d2:|

